X:614
T: AUF DIESER WELT HAB ICH KEIN FREUD
N: E0569
O: Europa, Mitteleuropa, Deutschland, West -; Mitteldeutschland
R: Liebes - Lied, Trennung
M: 3/4
L: 1/16
K: Bb
F4 | B2AGF4G4 | F2FED2
F2B2c2 | d4d4c2c2 | B4z2
B2B2B2 | G4E2c2c2c2 | A4F2
F2B2c2 | d4d4c2c2 | B4z4

